X: 1618
T: Annaghbeg, The
R: polka
M: 2/4
K: Dmajor
|:A{B/}A/F/ Ad|A/4B/4d/A/F/ Ad|ce Bc|BA FA|
A/4B/4d/A/F/ Ad|A/4B/4d/A/F/ Ad|ce/c/ Bc|1 ed d2:|2 ed d||
|:d/e/|f2 ed/e/|fe ef/e/|dc BA|B/4c/4B/A/ FA|
[1 fd/f/ ed/e/|fe ef/e/|dc Bc|ed d:|
[2 A/4B/4d/A/F/ Ad|A/4B/4d/A/F/ Ad|ce/c/ Bc|ed d2||

